X: 20457
T: John Joe Hartnett's
R: slide
M: 12/8
K: Dmajor
D|GAG ~G2D GBd g2e|ded B2A GAG GED|GAG ~G2D GBd g2e|ded B2A G3 G3:|
D|G2A B2d edB g2g|edB g2e dBG AGE|G2A Bcd e3 efg|afd def g3 g3:|

